img/tg__ico.svg

<svg width="30" height="30" viewBox="0 0 30 30" fill="none" xmlns="http://www.w3.org/2000/svg">
<path d="M15 30C23.2843 30 30 23.2843 30 15C30 6.71573 23.2843 0 15 0C6.71573 0 0 6.71573 0 15C0 23.2843 6.71573 30 15 30Z" fill="white"/>
<path fill-rule="evenodd" clip-rule="evenodd" d="M6.7822 14.8377C11.1536 12.9393 14.0636 11.6779 15.5249 11.0659C19.684 9.32982 20.5582 9.03007 21.1203 9.01758C21.2452 9.01758 21.5199 9.04256 21.7073 9.19243C21.8571 9.31733 21.8946 9.47969 21.9196 9.60459C21.9446 9.72949 21.9695 9.99177 21.9446 10.1916C21.7198 12.5646 20.7456 18.3223 20.246 20.9701C20.0337 22.0942 19.6215 22.4689 19.2218 22.5063C18.3476 22.5813 17.6856 21.9318 16.8488 21.3823C15.5249 20.5205 14.788 19.9834 13.5016 19.1341C12.0153 18.16 12.977 17.6229 13.8263 16.7486C14.0511 16.5238 17.8855 13.0267 17.9604 12.7145C17.9729 12.677 17.9729 12.5272 17.8855 12.4522C17.798 12.3773 17.6731 12.4023 17.5732 12.4272C17.4358 12.4522 15.3376 13.8511 11.2535 16.6113C10.654 17.0234 10.1169 17.2232 9.62983 17.2108C9.09278 17.1983 8.06863 16.911 7.29428 16.6612C6.35756 16.3615 5.60818 16.1991 5.67063 15.6745C5.7081 15.3998 6.08279 15.125 6.7822 14.8377Z" fill="#080808"/>
</svg>

<svg xmlns="http://www.w3.org/2000/svg" width="30" height="30" fill="none"><path fill="#fff" d="M15 30c8.284 0 15-6.716 15-15 0-8.284-6.716-15-15-15C6.716 0 0 6.716 0 15c0 8.284 6.716 15 15 15Z"/><path fill="#080808" fill-rule="evenodd" d="M6.782 14.838c4.372-1.899 7.282-3.16 8.743-3.772 4.159-1.736 5.033-2.036 5.595-2.048.125 0 .4.025.587.174.15.125.188.288.213.413.025.124.05.387.025.587-.225 2.373-1.2 8.13-1.699 10.778-.212 1.124-.624 1.499-1.024 1.536-.874.075-1.536-.574-2.373-1.124-1.324-.862-2.061-1.399-3.347-2.248-1.487-.974-.525-1.511.324-2.385.225-.225 4.06-3.722 4.134-4.034.013-.038.013-.188-.075-.263-.087-.075-.212-.05-.312-.025-.137.025-2.235 1.424-6.32 4.184-.599.412-1.136.612-1.623.6-.537-.013-1.561-.3-2.336-.55-.936-.3-1.686-.462-1.623-.987.037-.274.412-.549 1.111-.836Z" clip-rule="evenodd"/></svg>
